src/assets/img/icons/duotone-icons/Code/Puzzle.svg

<?xml version="1.0" encoding="UTF-8"?>
<svg width="24px" height="24px" viewBox="0 0 24 24" version="1.1" xmlns="http://www.w3.org/2000/svg" xmlns:xlink="http://www.w3.org/1999/xlink">
    <!-- Generator: Sketch 52.2 (67145) - http://www.bohemiancoding.com/sketch -->
    <title>Stockholm-icons / Code / Puzzle</title>
    <desc>Created with Sketch.</desc>
    <g id="Stockholm-icons-/-Code-/-Puzzle" stroke="none" stroke-width="1" fill="none" fill-rule="evenodd">
        <rect id="bound" x="0" y="0" width="24" height="24"></rect>
        <path d="M19,11 L20,11 C21.6568542,11 23,12.3431458 23,14 C23,15.6568542 21.6568542,17 20,17 L19,17 L19,20 C19,21.1045695 18.1045695,22 17,22 L5,22 C3.8954305,22 3,21.1045695 3,20 L3,17 L5,17 C6.65685425,17 8,15.6568542 8,14 C8,12.3431458 6.65685425,11 5,11 L3,11 L3,8 C3,6.8954305 3.8954305,6 5,6 L8,6 L8,5 C8,3.34314575 9.34314575,2 11,2 C12.6568542,2 14,3.34314575 14,5 L14,6 L17,6 C18.1045695,6 19,6.8954305 19,8 L19,11 Z" id="Combined-Shape" fill="#335EEA" opacity="0.3"></path>
    </g>
</svg>

<svg width="24" height="24" viewBox="0 0 24 24" xmlns="http://www.w3.org/2000/svg"><g fill="none" fill-rule="evenodd"><path d="M0 0h24v24H0z"/><path d="M19 11h1a3 3 0 010 6h-1v3a2 2 0 01-2 2H5a2 2 0 01-2-2v-3h2a3 3 0 000-6H3V8a2 2 0 012-2h3V5a3 3 0 116 0v1h3a2 2 0 012 2v3z" fill="#335EEA" opacity=".3"/></g></svg>
